X: 18999
T: Inside-Oot Fish Eater, The
R: reel
M: 4/4
K: Dmajor
|:A2 AF DFAF|BAGB AGFE|FEDC DEFD|EA,A,E A,A,EA,|
A2 AF DFAF|BAGB AGFE|FEDC DEFD|EDCE D4:|
|:d2 de fdef|g2 f2 edce|d2 de fdef|eAAe AAeA|
d2 de fdef|g2 f2 edce|defd efdc|dBAF D4:|

